X: 1
T: My Dungannon Sweetheart
C: Graham Townsend
M: 6/8
L: 1/8
R: Jig
K: C
G, |\
C2E Gcd | e3 e2B | dcc cGE | GFF FDB, |\
G,B,D GBd | g3 g2e | fdB GAB |1 cEA GED :|2 c3 c2 |]
d |\
eee ecA | G3- GEA | GEA GEA | GFF FEF |\
fff fdB | GBd gfe | fdB GAB |1 cEA Gcd :|2 c3 c2 |]
